inpromtek/img/svg/orig/vk-footer.svg

<svg width="20" height="12" viewBox="0 0 20 12" fill="none" xmlns="http://www.w3.org/2000/svg">
<path d="M16.5958 6.8565C16.2725 6.44817 16.365 6.2665 16.5958 5.9015C16.6 5.89734 19.2692 2.209 19.5442 0.95817L19.5458 0.957337C19.6825 0.501504 19.5458 0.166504 18.885 0.166504H16.6983C16.1417 0.166504 15.885 0.454004 15.7475 0.775671C15.7475 0.775671 14.6342 3.44067 13.0592 5.16817C12.5508 5.66734 12.3158 5.82734 12.0383 5.82734C11.9017 5.82734 11.6892 5.66734 11.6892 5.2115V0.957337C11.6892 0.41067 11.5333 0.166504 11.0725 0.166504H7.63417C7.285 0.166504 7.0775 0.421504 7.0775 0.659004C7.0775 1.17734 7.865 1.2965 7.94667 2.75484V5.919C7.94667 6.61234 7.82083 6.73984 7.54167 6.73984C6.79833 6.73984 4.99417 4.064 3.925 1.0015C3.70917 0.407337 3.49833 0.167337 2.9375 0.167337H0.75C0.125833 0.167337 0 0.454837 0 0.776504C0 1.34484 0.743333 4.17067 3.45667 7.904C5.265 10.4523 7.81167 11.8332 10.1283 11.8332C11.5208 11.8332 11.6908 11.5265 11.6908 10.999C11.6908 8.564 11.565 8.334 12.2625 8.334C12.5858 8.334 13.1425 8.494 14.4425 9.72317C15.9283 11.1807 16.1725 11.8332 17.0042 11.8332H19.1908C19.8142 11.8332 20.13 11.5265 19.9483 10.9215C19.5325 9.649 16.7225 7.0315 16.5958 6.8565Z" fill="white"/>
</svg>

<svg width="20" height="12" fill="none" xmlns="http://www.w3.org/2000/svg"><path d="M16.596 6.856c-.323-.408-.231-.59 0-.954.004-.005 2.673-3.693 2.948-4.944h.002c.137-.456 0-.791-.661-.791h-2.187c-.556 0-.813.287-.95.609 0 0-1.114 2.665-2.689 4.392-.508.5-.743.66-1.02.66-.137 0-.35-.16-.35-.617V.958c0-.546-.156-.79-.617-.79H7.634c-.349 0-.557.255-.557.492 0 .518.788.637.87 2.096V5.92c0 .693-.126.82-.405.82-.744 0-2.548-2.675-3.617-5.737-.216-.595-.427-.835-.987-.835H.75c-.624 0-.75.288-.75.61 0 .568.743 3.394 3.457 7.127 1.808 2.548 4.355 3.93 6.671 3.93 1.393 0 1.563-.307 1.563-.835 0-2.435-.126-2.665.571-2.665.324 0 .88.16 2.18 1.39 1.486 1.457 1.73 2.11 2.562 2.11h2.187c.623 0 .939-.307.757-.912-.416-1.273-3.226-3.89-3.352-4.066z" fill="#fff"/></svg>
